assets/images/svg/svg-error.svg

<svg width="82" height="94" viewBox="0 0 82 94" fill="none" xmlns="http://www.w3.org/2000/svg">
<g clip-path="url(#clip0_1295_19248)">
<path d="M81.4149 17.83C81.3962 17.7488 81.3729 17.6686 81.3449 17.59C81.3449 17.49 81.2949 17.38 81.2549 17.28C81.2149 17.18 81.1549 17.11 81.1149 17.02C81.0742 16.9367 81.0274 16.8565 80.9749 16.78C80.8968 16.6578 80.8063 16.5438 80.7049 16.44C80.6778 16.4043 80.6477 16.3708 80.6149 16.34V16.34L65.1549 0.890034L65.0449 0.800037L64.7149 0.530033L64.4949 0.410023C64.3949 0.410023 64.3049 0.300029 64.2049 0.260029L63.9349 0.180027C63.8436 0.144058 63.7501 0.114 63.6549 0.0900305C63.4953 0.0743193 63.3345 0.0743193 63.1749 0.0900305H3.47491C2.69956 0.090026 1.95584 0.397355 1.40665 0.944675C0.857452 1.492 0.547568 2.23468 0.544922 3.01003V86.4C0.544855 86.7847 0.620816 87.1656 0.768402 87.5208C0.915988 87.8761 1.13231 88.1987 1.40494 88.47L5.85492 92.92C6.40425 93.4684 7.14874 93.7764 7.92493 93.7764C8.70112 93.7764 9.4456 93.4684 9.99493 92.92L18.9949 83.92L27.9949 92.92C28.2661 93.1913 28.588 93.4064 28.9423 93.5532C29.2966 93.7 29.6764 93.7755 30.0599 93.7755C30.4435 93.7755 30.8232 93.7 31.1775 93.5532C31.5318 93.4064 31.8538 93.1913 32.1249 92.92L41.1249 83.92L50.1249 92.92C50.6743 93.4684 51.4187 93.7764 52.1949 93.7764C52.9711 93.7764 53.7156 93.4684 54.2649 92.92L63.2649 83.92L72.2649 92.92C72.5361 93.1913 72.858 93.4064 73.2123 93.5532C73.5667 93.7 73.9464 93.7755 74.3299 93.7755C74.7134 93.7755 75.0932 93.7 75.4475 93.5532C75.8019 93.4064 76.1238 93.1913 76.3949 92.92L80.8349 88.48C81.111 88.2086 81.3302 87.8849 81.4796 87.5277C81.6289 87.1706 81.7056 86.7872 81.7049 86.4V18.5C81.6381 18.2649 81.5406 18.0397 81.4149 17.83V17.83ZM78.5549 18.41H63.0649V2.92003L78.5549 18.41ZM78.5549 86.31L74.0949 90.73L63.0949 79.73L52.0949 90.73L41.0949 79.73L30.0949 90.73L19.0949 79.73L8.09494 90.73L3.64493 86.28V2.92003H60.3349V18.41C60.3349 19.1845 60.6426 19.9272 61.1902 20.4748C61.7378 21.0224 62.4805 21.33 63.2549 21.33H78.7449L78.5549 86.31Z" fill="white"/>
<path d="M22.5251 35.25L26.9651 30.81L31.4051 35.25L33.4751 33.18L29.0351 28.74L33.4751 24.3L31.4051 22.23L26.9651 26.67L22.5251 22.23L20.4551 24.3L24.8951 28.74L20.4551 33.18L22.5251 35.25Z" fill="white"/>
<path d="M50.5954 35.25L55.0354 30.81L59.4754 35.25L61.5454 33.18L57.1054 28.74L61.5454 24.3L59.4754 22.23L55.0354 26.67L50.5954 22.23L48.5254 24.3L52.9654 28.74L48.5254 33.18L50.5954 35.25Z" fill="white"/>
<path d="M50.9752 45.86H19.0352C18.648 45.86 18.2766 46.0138 18.0028 46.2876C17.729 46.5614 17.5752 46.9328 17.5752 47.32C17.5752 47.7072 17.729 48.0786 18.0028 48.3524C18.2766 48.6262 18.648 48.78 19.0352 48.78H49.5052V53.32C49.576 55.2525 50.3934 57.0823 51.7856 58.4245C53.1779 59.7667 55.0364 60.5167 56.9702 60.5167C58.9041 60.5167 60.7626 59.7667 62.1548 58.4245C63.547 57.0823 64.3645 55.2525 64.4352 53.32V45.86H50.9752V45.86ZM61.5052 53.32C61.4505 54.4859 60.9487 55.5859 60.1042 56.3917C59.2598 57.1974 58.1374 57.647 56.9702 57.647C55.803 57.647 54.6806 57.1974 53.8362 56.3917C52.9917 55.5859 52.49 54.4859 52.4352 53.32V48.78H55.5052V51.38C55.4885 51.5825 55.5139 51.7864 55.5799 51.9786C55.6459 52.1708 55.7511 52.3473 55.8888 52.4968C56.0264 52.6463 56.1936 52.7657 56.3798 52.8473C56.5659 52.929 56.767 52.9711 56.9702 52.9711C57.1735 52.9711 57.3745 52.929 57.5606 52.8473C57.7468 52.7657 57.914 52.6463 58.0516 52.4968C58.1893 52.3473 58.2945 52.1708 58.3605 51.9786C58.4265 51.7864 58.452 51.5825 58.4352 51.38V48.78H61.5052V53.32Z" fill="white"/>
</g>
<defs>
<clipPath id="clip0_1295_19248">
<rect width="80.95" height="93.69" fill="white" transform="translate(0.525391)"/>
</clipPath>
</defs>
</svg>

<svg width="82" height="94" fill="none" xmlns="http://www.w3.org/2000/svg">
  <g clip-path="url(#a)" fill="#fff">
    <path d="M81.415 17.83a2.16 2.16 0 0 0-.07-.24c0-.1-.05-.21-.09-.31-.04-.1-.1-.17-.14-.26a1.892 1.892 0 0 0-.14-.24 2.122 2.122 0 0 0-.27-.34.804.804 0 0 0-.09-.1L65.155.89l-.11-.09-.33-.27-.22-.12c-.1 0-.19-.11-.29-.15l-.27-.08a2.288 2.288 0 0 0-.28-.09 2.45 2.45 0 0 0-.48 0h-59.7a2.93 2.93 0 0 0-2.93 2.92V86.4a2.92 2.92 0 0 0 .86 2.07l4.45 4.45a2.93 2.93 0 0 0 4.14 0l9-9 9 9a2.92 2.92 0 0 0 4.13 0l9-9 9 9a2.93 2.93 0 0 0 4.14 0l9-9 9 9a2.92 2.92 0 0 0 4.13 0l4.44-4.44a2.91 2.91 0 0 0 .87-2.08V18.5a2.782 2.782 0 0 0-.29-.67Zm-2.86.58h-15.49V2.92l15.49 15.49Zm0 67.9-4.46 4.42-11-11-11 11-11-11-11 11-11-11-11 11-4.45-4.45V2.92h56.69v15.49a2.92 2.92 0 0 0 2.92 2.92h15.49l-.19 64.98Z"/>
    <path d="m22.525 35.25 4.44-4.44 4.44 4.44 2.07-2.07-4.44-4.44 4.44-4.44-2.07-2.07-4.44 4.44-4.44-4.44-2.07 2.07 4.44 4.44-4.44 4.44 2.07 2.07ZM50.595 35.25l4.44-4.44 4.44 4.44 2.07-2.07-4.44-4.44 4.44-4.44-2.07-2.07-4.44 4.44-4.44-4.44-2.07 2.07 4.44 4.44-4.44 4.44 2.07 2.07ZM50.975 45.86h-31.94a1.46 1.46 0 1 0 0 2.92h30.47v4.54a7.47 7.47 0 0 0 14.93 0v-7.46h-13.46Zm10.53 7.46a4.54 4.54 0 0 1-9.07 0v-4.54h3.07v2.6a1.471 1.471 0 1 0 2.93 0v-2.6h3.07v4.54Z"/>
  </g>
  <defs>
    <clipPath id="a">
      <path fill="#fff" transform="translate(.525)" d="M0 0h80.95v93.69H0z"/>
    </clipPath>
  </defs>
</svg>
